X:1
T:Burleith, CMD
T:Burleith, CMD
T:Uzziah Christopher Burnap, 1895
T:Public Domain Courtesy of the Cyber Hymnal™
C:Uzziah Christopher Burnap, 1895
Z:Public Domain
Z:Courtesy of the Cyber Hymnal™
%%score ( 1 2 ) ( 3 4 )
L:1/8
Q:1/4=110
M:4/4
K:D
V:1 treble 
V:2 treble 
V:3 bass 
V:4 bass 
V:1
 [FA]2 | [FA]2 [FA]2 [FA]2 [FA]2 | [DG]3 [DF] [DF]2 [FA]2 | [EA]2 (EF) [CG]2 [CA]2 | [DF]6 [FA]2 | %5
 [FA]2 [Fd]2 [Gc]2 F2 | [^EB]3 [FA] [FA]2 [FB]2 | [Fc]2 [FA]2 [F^G]2 [^Ec]2 | F6 [CF]2 | %9
 [DG]3 [GA] [GB]2 [Gc]2 | [FB]3 [FA] [FA]2 [FA]2 | [Fd]3 [Gc] [FB]2 [F^A]2 | [FB]6 [FB]2 | %13
 [GB]3 [GA] [FA]2 [Fd]2 | [Ed]3 E [Ec]2 [GB]2 | [FA]2 [Dd]2 [DE]2 [CA]2 | D6 |] %17
V:2
 x2 | x8 | x8 | x2 C2 x4 | x8 | x6 F2 | x8 | x8 | F6 x2 | x8 | x8 | x8 | x8 | x8 | x3 E x4 | x8 | %16
 D6 |] %17
V:3
 [D,A,]2 | [D,A,]2 [D,B,]2 [D,C]2 [D,D]2 | [D,B,]3 [D,A,] [D,A,]2 [D,A,]2 | %3
 [A,,G,]2 (G,F,) [A,,E,]2 [A,,A,]2 | [D,A,]6 [D,A,]2 | [D,A,]2 [F,A,]2 [E,A,]2 [D,A,]2 | %6
 [D,^G,]3 [D,A,] [D,A,]2 [D,G,]2 | [C,A,]2 [C,C]2 [C,B,]2 [C,B,]2 | [F,A,]6 [F,A,]2 | %9
 [E,B,]3 [E,C] [A,,D]2 [A,,E]2 | [D,D]3 [D,D] [D,D]2 [D,A,]2 | [B,,B,]3 [E,C] [F,D]2 [F,C]2 | %12
 [B,,D]6 [B,,D]2 | [C,E]3 [C,E] [D,D]2 [D,C]2 | [G,B,]3 [G,B,] [G,B,]2 [E,D]2 | %15
 [A,,D]2 [A,,F,]2 [A,,B,]2 [A,,G,]2 | [D,F,]6 |] %17
V:4
 x2 | x8 | x8 | x2 A,,2 x4 | x8 | x8 | x8 | x8 | x8 | x8 | x8 | x8 | x8 | x8 | x8 | x8 | x6 |] %17

